X: 39696
T: Teribus
R: polka
M: 2/4
K: Dmajor
A|dA d>e|fa fd|g>f ed|ce cA|
dA d>e|fa fd|g>f ea|fd d:|
|:g|a2 a>g|fa fd|g>f e>d|ce cA|
[1 a2 a>g|fa fd|g>f da|fd d:|
[2 dA d>e|fa fd|g>f ea|fd d||

